!!!OTL: Graf und Nonne (Die Nonne) Ich stand auf Berges Hoehen,
!!!ARE: Europa, Mitteleuropa, Deutschland (BRD), Niedersachsen, Osnabrueck, Hagen
!!!YOR: 8, S. 294
!!    ???? aufgezeichnet
!!!SCT: Q0155a.
!!!YEM: Copyright 1995, estate of Helmut Schaffrath.
**kern
*ICvox
*Ivox
*M4/4
*k[f#]
*G:
{8g
8b
=1
4.dd
8gg
8dd
8b
8cc
8a
=2
4.b
8a
4b}
{8dd
8dd
=3
4ee
4dd
4cc
4b
=4
2a
4r}
{8g
8b
=5
4dd
4dd
4dd
4dd
=6
2ee
2dd
=7
2cc
4b}
{4dd
=8
4ee
8dd
8cc
4b
4a
=9
2g
4r}
==
!!!AGN: Ballade, Standesunterschied, vergebliche Werbung, Liebe, Klage
!! Kontaminierte Fassung mit "Im schoensten Wiesengrunde" . Anhaengsel
!!    an der dritten Zeile.
!!!ONB: ESAC (Essen Associative Code) Database: BALLADE
!!!AMT: simple quadruple
!!!AIN: vox
!!!EED: Helmut Schaffrath
!!!EEV: 1.0
*-
